X:83
T: Steh ich an mein Fensterlein,
N: D0093
O: Europa, Mitteleuropa, Deutschland, Baden, Freiburg i. Brsg.
N: Inzipit = Variante zum Lied
R: Liebesschmerz
M: 3/4
L: 1/8
K: D
FG | A3BAA | G2z2
Ad | f3eed | A2z2
dc | B3BBB | A2z2
AA | G2c2 | d2z2
dc | B3BBB | A2z2
AA | G2c2 | d2z2

